!!!!SEGMENT: pl-kk--kk-i-475--003_studzinski-karol--msza-3cia-graduale.krn
!!!id: 18xx:1379
!!!COM: Studziński, Karol
!!!COM-rism: pe30040593
!!!CDT: 1828/01/24-1883/03/16
!!!CNT: Polish
!!!OTL: Msza 3cia – Graduale
!!!PDT:
!!!SMS-siglum: PL-Kk
!!!SMS-shelfmark: Kk.I.475
!!!NIFC-rismID: 1001140246
!!!URL-scan: http://repozytorium.nifc.pl/skany/pl-kk-nut--i-475
!!!ONB-nifc: UWAGA: części Mszy: 1. Kyrie, 2. Gloria, 3. Graduale, 4. Credo, 5. Sanctus, 6. O salutaris, 7. Agnus Dei
!!!SMS-variant:
!!!SMS-altvar:
**kern	**kern	**text	**dynam	**kern	**text	**dynam	**kern	**text
*part4	*part3	*part3	*part3	*part2	*part2	*part2	*part1	*part1
*staff4	*staff3	*staff3	*	*staff2	*staff2	*	*staff1	*staff1
*I"[Bas.]	*I"Tenor.	*	*	*I"Alt.	*	*	*I"Sopran.	*
*I'[B]	*I'T	*	*	*I'A	*	*	*I'S	*
*clefF4	*clefG2	*	*	*clefG2	*	*	*clefG2	*
*	*Trd0c0	*	*	*	*	*	*	*
*k[]	*k[]	*	*	*k[]	*	*	*k[]	*
*M4/4	*M4/4	*	*	*M4/4	*	*	*M4/4	*
*met(c)	*met(c)	*	*	*met(c)	*	*	*met(c)	*
=1	=1	=1	=1	=1	=1	=1	=1	=1
!LO:TX:t=P:problem:na kartach tytułowych adnotacja "na 4 głosy mieszane"; brak jednej partii w źródle	!LO:TX:rj:a:t=Andante moderato	!	!	!LO:TX:rj:a:t=Andante moderato	!	!	!LO:TX:rj:a:t=Andante moderato	!
1ryy	2.cc\	Do-	.	2.e/	Do-	.	2.e/	Do-
.	4cc\	-mi-	.	4d/	-mi-	.	4f/	-mi-
=2	=2	=2	=2	=2	=2	=2	=2	=2
1ryy	2cc\	-ne	.	2e/	-ne	.	2g/	-ne
.	4r	.	.	4r	.	.	4r	.
.	4cc\	cla-	.	4c/	cla-	.	4c/	cla-
=3	=3	=3	=3	=3	=3	=3	=3	=3
1ryy	2cc\	-ma-	.	2a/	-ma-	.	2cc\	-ma-
.	4cc\	-vi	.	4g/	-vi	.	4b\	-vi
.	4cc\	ad	.	4f/	ad	.	4a/	ad
=4	=4	=4	=4	=4	=4	=4	=4	=4
1ryy	2cc\	Te	.	2e/	Te	.	2g/	Te
.	4r	.	.	4r	.	.	4r	.
.	4g/	cla-	.	4c/	cla-	.	4e/	cla-
!	!LO:LB:g=original	!	!	!LO:LB:g=original	!	!	!LO:LB:g=original	!
=5	=5	=5	=5	=5	=5	=5	=5	=5
1ryy	(>4g/	-ma-	.	2B/	-ma-	.	2d/	-ma-
.	4f/)	.	.	.	.	.	.	.
.	4e/	-vi	.	4c/	-vi	.	4c/	-vi
.	4g/	ex-	.	4e/	ex-	.	4g/	ex-
=6	=6	=6	=6	=6	=6	=6	=6	=6
1ryy	2g/	-au-	.	2d/	-au-	.	4g/	-au-
.	.	.	.	.	.	.	4f/	-di
.	4g/	di	.	4c/	di	.	4e/	.
.	4a/	ex-	.	4e/	ex-	.	4cc\	ex-
=7	=7	=7	=7	=7	=7	=7	=7	=7
1ryy	2g/	-au-	.	(>4e/	-au-	.	4g/	-au-
.	.	.	.	2d/)	.	.	2f/	.
.	2g/	di	.	.	.	.	.	.
.	.	.	.	4c/	-di	.	4e/	-di
=8	=8	=8	=8	=8	=8	=8	=8	=8
1ryy	2g/	me	.	4c/	meae	.	4e/	me
.	.	.	.	4B/	.	.	4d/	.
.	4r	.	.	4r	.	.	4r	.
.	4b/	in-	.	4d/	in-	.	4d/	in-
!	!LO:PB:g=original	!	!	!LO:LB:g=original	!	!	!LO:LB:g=original	!
=9	=9	=9	=9	=9	=9	=9	=9	=9
!	!	!	!	!LO:SIC:v:l:s=ten	!	!	!	!
1ryy	2b\	-ten-	.	2d/	-ter-	.	2d/	-ten-
!	!	!	!	!LO:SIC:v:l:s=de	!	!	!	!
.	4b\	-de	.	4B/	-ra	.	4B/	-de
.	4b\	in-	.	4d/	in-	.	4g/	in-
=10	=10	=10	=10	=10	=10	=10	=10	=10
1ryy	2.b\	-ten-	.	2.d/	-ten-	.	2g/	-ten-
.	.	.	.	.	.	.	4d/	.
.	8b/L	-de	.	4c#X/	-de	.	(8g/L	-de
.	8a/J	.	.	.	.	.	8a/J)	.
=11	=11	=11	=11	=11	=11	=11	=11	=11
1ryy	2g/	vo-	.	2d/	vo-	.	2.b\	vo-
.	4e/	.	.	4c#X/	.	.	.	.
.	4f#X/	-ci	.	4cn/	-ci	.	4a/	-ci
=12	=12	=12	=12	=12	=12	=12	=12	=12
1ryy	2.g/	meae	.	2.B/	meae	.	2.g/	meae
.	4r	.	.	4r	.	.	4r	.
!	!LO:LB:g=original	!	!	!LO:LB:g=original	!	!	!LO:LB:g=original	!
=13	=13	=13	=13	=13	=13	=13	=13	=13
1ryy	(2b\	Dum	.	2d/	Dum	.	(2d/	Dum
.	4g/)	.	.	4B/	.	.	4B/)	.
.	4b/	cla-	.	4d/	cla-	.	4g/	cla-
=14	=14	=14	=14	=14	=14	=14	=14	=14
1ryy	4.b\	-ma-	.	4.d/	-ma-	.	4.g/	-ma-
.	8b\	-ve-	.	8d/	-ve-	.	8d/	-ve-
.	4b\	-ro	.	4d/	-ro	.	4d/	-ro
.	4b\	cla-	.	4d/	cla-	.	(8g/L	cla-
.	.	.	.	.	.	.	8b/J)	.
=15	=15	=15	=15	=15	=15	=15	=15	=15
1ryy	4.b\	-ma-	.	4.g/	-ma-	.	4.dd\	-ma-
!	!	!	!	!LO:TX:b:t=rallent.	!	!	!	!
.	8dd\	-ve-	.	8g/	-ve-	.	8b\	-ve-
.	4b\	-ro	.	4g/	-ro	.	4g/	-ro
!	!LO:TX:b:t=rallen.	!	!	!	!	!	!	!
.	4dd\	ad	.	4f#X/	ad	.	4a/	ad
=16	=16	=16	=16	=16	=16	=16	=16	=16
1ryy	2.dd;;\	Te	.	2.fn;/	Te	.	2.b;\	Te
.	4r	.	.	4r	.	.	4r	.
!	!LO:LB:g=original	!	!	!LO:PB:g=original	!	!	!LO:PB:g=original	!
=17	=17	=17	=17	=17	=17	=17	=17	=17
!	!	!	!LO:DY:rj:b	!	!	!LO:DY:a	!	!
1ryy	2.cc\	Do-	p	2.e/	Do-	p	2.e/	Do-
.	4cc\	-mi-	.	4d/	-mi-	.	4f/	-mi-
=18	=18	=18	=18	=18	=18	=18	=18	=18
1ryy	2cc\	-ne	.	2e/	-ne	.	2g/	-ne
.	4r	.	.	4r	.	.	4r	.
.	4cc\	cla-	.	4c/	cla-	.	4c/	cla-
=19	=19	=19	=19	=19	=19	=19	=19	=19
1ryy	2cc\	-ma-	.	2a/	-ma-	.	2cc\	-ma-
.	4cc\	-vi	.	4g/	-vi	.	4b\	-vi
.	4cc\	ad	.	4f/	ad	.	4a/	ad
=20	=20	=20	=20	=20	=20	=20	=20	=20
1ryy	2cc\	Te	.	2e/	Te	.	2g/	te
.	4r	.	.	4r	.	.	4r	.
.	4g/	cla-	.	4c/	cla-	.	4e/	cla-
!	!LO:LB:g=original	!	!	!LO:LB:g=original	!	!	!LO:LB:g=original	!
=21	=21	=21	=21	=21	=21	=21	=21	=21
1ryy	(>4.g/	-ma-	.	2B/	-ma-	.	2d/	-ma-
.	8f/)	.	.	.	.	.	.	.
.	4e/	-vi	.	4c/	-vi	.	4c/	-vi
.	4g/	cla-	.	4e/	cla-	.	4g/	cla-
=22	=22	=22	=22	=22	=22	=22	=22	=22
1ryy	2g/	-ma-	.	2d/	-ma-	.	4.g/	-ma-
.	.	.	.	.	.	.	8f/	.
.	4g/	-vi	.	4c/	-vi	.	4e/	-vi
.	4a/	ex-	.	4e/	ex-	.	4cc\	ex-
=23	=23	=23	=23	=23	=23	=23	=23	=23
!	!	!	!	!LO:SIC:v:t=dopisana 4f a 2c zmieniona na 4c	!	!	!	!
1ryy	(>4a/	-au-	.	2c/	-au-	.	2a/	-au-
.	2f/)	.	.	.	.	.	.	.
.	.	.	.	2B/	-di	.	2g/	-di
.	8g/L	-di	.	.	.	.	.	.
.	8f/J	.	.	.	.	.	.	.
=24	=24	=24	=24	=24	=24	=24	=24	=24
1ryy	4e/	me	.	4c/	me	.	4c/	me
.	4a/	ad	.	4r	.	.	4r	.
.	[>2g/	Te	.	4r	.	.	4r	.
.	.	.	.	4B/	ad	.	4d/	ad
!	!LO:LB:g=original	!	!	!	!LO:LB:g=original	!	!LO:LB:g=original	!
=25	=25	=25	=25	=25	=25	=25	=25	=25
1ryy	4g/]	.	.	4c/	Te	.	4e/	Te
.	4a/	ad	.	4r	.	.	4r	.
.	[>2g/	Te	.	4r	.	.	4r	.
.	.	.	.	4B/	ad	.	4d/	ad
=26	=26	=26	=26	=26	=26	=26	=26	=26
1ryy	4g/]	.	.	4c/	Te	.	4e/	Te
.	4a/	ad	.	4r	.	.	4r	.
.	4g/	Te	.	4r	.	.	4r	.
.	4b-X/	in-	.	4c/	in-	.	4g/	in-
=27	=27	=27	=27	=27	=27	=27	=27	=27
1ryy	4a/	-ten-	.	4c/	-ten-	.	4f/	-ten-
.	4a/	-de	.	4c/	-de	.	4e/	-de
.	4.g/	vo-	.	4c/	vo-	.	4d/	vo-
.	.	.	.	4B/	-ci	.	4e/	-ci
.	8f/	-ci	.	.	.	.	.	.
=28	=28	=28	=28	=28	=28	=28	=28	=28
1ryy	4e/	meae	.	4c/	meae	.	4c/	meae
.	(>4a/	.	.	4r	.	.	4r	.
.	4g/)	dum	.	4r	.	.	4r	.
.	4b/	cla-	.	4d/	ad	.	4g/	ad
!	!LO:LB:g=original	!	!	!LO:LB:g=original	!	!	!LO:LB:g=original	!
=29	=29	=29	=29	=29	=29	=29	=29	=29
!	!	!	!	!	!	!	!LO:SIC:v:t=me poprawione na Te	!
1ryy	4cc\	-ma-	.	4e/	Te	.	4g/	Te
.	4a/	-ve-	.	4r	.	.	4r	.
.	4g/	-ro	.	4r	.	.	4r	.
.	4b/	ad	.	4d/	ad	.	4g/	ad
=30	=30	=30	=30	=30	=30	=30	=30	=30
1ryy	4cc\	Te	.	4e/	Te	.	4g/	Te
!	!	!	!LO:DY:rj:b	!	!	!	!	!
.	2cc\	dum	f	2cc\	dum	.	2cc\	dum
.	4g/	cla-	.	4g/	cla-	.	4g/	cla-
=31	=31	=31	=31	=31	=31	=31	=31	=31
1ryy	4.e/	-ma-	.	4.e/	-ma-	.	4.e/	-ma-
.	8f/	-ve-	.	8f/	-ve-	.	8f/	-ve-
.	4g/	-ro	.	4g/	-ro	.	4g/	-ro
.	4f;/	ad	.	4B;/	ad	.	4g;/	ad
=32	=32	=32	=32	=32	=32	=32	=32	=32
!	!	!	!LO:DY:rj:b	!	!	!	!	!
1ryy	[>1e/	Te	p	[>1c/	Te	.	[>1c/	Te
=33	=33	=33	=33	=33	=33	=33	=33	=33
1ryy	2.e/]	.	.	2.c/]	.	.	2.c/]	.
.	4r	.	.	4r	.	.	4r	.
==	==	==	==	==	==	==	==	==
*-	*-	*-	*-	*-	*-	*-	*-	*-
!!!system-decoration: [(s1,s2,s3,s4)]
!!!RDF**kern: > = above
!!!EED: Leszek Kubiak
!!!EST: 2021-01-15
!!!ENC: Katarzyna Serwa
!!!END: 2021-01-11
